svgs/light/sensor.svg

<svg xmlns="http://www.w3.org/2000/svg" viewBox="0 0 448 512"><!-- Font Awesome Pro 6.0.0-alpha2 by @fontawesome - https://fontawesome.com License - https://fontawesome.com/license (Commercial License) --><path d="M384 32H64C28.625 32 0 60.625 0 96V416C0 451.375 28.625 480 64 480H384C419.375 480 448 451.375 448 416V96C448 60.625 419.375 32 384 32ZM416 416C416 433.625 401.625 448 384 448H64C46.375 448 32 433.625 32 416V96C32 78.375 46.375 64 64 64H384C401.625 64 416 78.375 416 96V416ZM112 128C103.125 128 96 135.125 96 144V272C96 280.875 103.125 288 112 288S128 280.875 128 272V144C128 135.125 120.875 128 112 128ZM176 128C167.125 128 160 135.125 160 144V272C160 280.875 167.125 288 176 288S192 280.875 192 272V144C192 135.125 184.875 128 176 128ZM240 128C231.125 128 224 135.125 224 144V272C224 280.875 231.125 288 240 288S256 280.875 256 272V144C256 135.125 248.875 128 240 128Z"/></svg>

<svg xmlns="http://www.w3.org/2000/svg" viewBox="0 0 448 512"><!-- Font Awesome Pro 5.15.1 by @fontawesome - https://fontawesome.com License - https://fontawesome.com/license (Commercial License) --><path d="M384,32H64A64,64,0,0,0,0,96V416a64,64,0,0,0,64,64H384a64,64,0,0,0,64-64V96A64,64,0,0,0,384,32Zm32,384a32,32,0,0,1-32,32H64a32,32,0,0,1-32-32V96A32,32,0,0,1,64,64H384a32,32,0,0,1,32,32ZM112,128a16,16,0,0,0-16,16V272a16,16,0,0,0,32,0V144A16,16,0,0,0,112,128Zm64,0a16,16,0,0,0-16,16V272a16,16,0,0,0,32,0V144A16,16,0,0,0,176,128Zm64,0a16,16,0,0,0-16,16V272a16,16,0,0,0,32,0V144A16,16,0,0,0,240,128Z"/></svg>
